!!!COM: Bach, Johann Sebastian
!!!OPR: Joh. Seb. Bachs vierstimmige Choralges‰nge
!!!XEN: Four-part Chorales
!!!OTL: 118. Kyrie! Gott Vater in Ewigkeit
!!!SCT: BWV 371
!!!SCA: Thematisch-systematisches Verzeichnis der musikalischen Werke Johann Sebastian Bach: Bach-Werke-Verzeichnis (Schmieder)
!!!YOR: Bach Gesellschaft Edition xxxix
!!!ENC: Steven Rasmussen
!!!CDT: 1685/3//-1750/7/28/
!!!OCY: Deutschland
!!!YEC: Copyright (c) 1994, 2000 Center for Computer Assisted Research in the Humanities
!!!YEM: Rights to all derivative editions reserved
!!!YEN: United States of America
**kern	**silbe	**kern	**silbe	**kern	**silbe	**kern	**silbe
*I:[SOPRANO]	*I:[SOPRANO]	*I:[ALTO]	*I:[ALTO]	*I:[TENORE]	*I:[TENORE]	*I:[BASSO]	*I:[BASSO]
*clefG2	*	*clefG2	*	*clefGv2	*	*clefF4	*
*k[]	*	*k[]	*	*k[]	*	*k[]	*
*C:	*	*C:	*	*C:	*	*C:	*
*M4/4	*	*M4/4	*	*M4/4	*	*M4/4	*
=1-	=1-	=1-	=1-	=1-	=1-	=1-	=1-
2g	Ky-	8eL	Ky-	4.B	Ky-	4.E	Ky-
.	.	8fJ	.	.	.	.	.
.	.	[4g	.	.	.	.	.
.	.	.	.	16cLL	.	8D	.
.	.	.	.	16dJJ	.	.	.
2a	-ri-	8gL]	.	8eL	.	4C	.
.	.	16f#L	.	8AJ	.	.	.
.	.	16eJJ	.	.	.	.	.
.	.	4f#	-ri-	4d	-ri-	4D	-ri-
=2	=2	=2	=2	=2	=2	=2	=2
2b;	-e!	2g;	-e!	2d;	-e!	2GG;	-e!
4a	Gott	4f	.	4d	Gott	4D	Gott
4cc	Va-	4e	.	8cL	Va-	8AAL	Va-
.	.	.	.	8dJ	.	8BBJ	.
=3	=3	=3	=3	=3	=3	=3	=3
4cc	-ter	4a	.	[2e	-ter	8CL	-ter
.	.	.	.	.	.	8DJ	.
4b	in	4g	.	.	.	8EL	in
.	.	.	.	.	.	8DJ	.
4a	E-	8gL	.	8e]	.	8CL	E-
.	.	16f#L	.	8c	in	8AAJ	.
.	.	16eJJ	.	.	.	.	.
4a	-wig-	4f#	.	8A	E-	4D	-wig-
.	.	.	.	16dLL	-wig-	.	.
.	.	.	.	16cJJ	.	.	.
=4	=4	=4	=4	=4	=4	=4	=4
2g;	-keit!	2d;	.	2B;	-keit!	2GG;	-keit!
4a	Gross	8fL	.	8dL	.	8D	Gross
.	.	8eJ	.	16cL	.	8E	ist
.	.	.	.	16B-JJ	.	.	.
4a	ist	8dL	.	4A	.	[4F	dein'
.	.	8c#J	.	.	.	.	.
=5	=5	=5	=5	=5	=5	=5	=5
4g	dein'	8d	dein'	4B-	dein'	8FL]	.
.	.	8c#	Barm-	.	.	8EJ	.
4f	Barm-	[4d	-her-	8AL	Barm-	8FL	Barm-
.	.	.	.	8dJ	.	8B-J	.
4e	-her-	8dL]	.	8B-L	-her-	8GL	-her-
.	.	16c#L	.	8GJ	.	8EJ	.
.	.	16BJJ	.	.	.	.	.
4e	-zig-	4c#	-zig-	8EL	-zig-	8AL	-zig-
.	.	.	.	16AL	.	8AAJ	.
.	.	.	.	16GJJ	.	.	.
=6	=6	=6	=6	=6	=6	=6	=6
2d;	-keit,	2A;	-keit,	2F;	-keit,	2D;	-keit,
4d	al-	4d	.	4F	.	4.D	.
4a	-ler	4e	.	8EL	.	.	.
.	.	.	.	8AJ	.	8C#	.
=7	=7	=7	=7	=7	=7	=7	=7
4a	Ding'	16fLL	Ding'	8AL	Ding'	(8D	Ding'
.	.	16eJJ	.	.	.	.	.
.	.	4d	.	16dL	.	4F)	.
.	.	.	.	16cJJ	.	.	.
4g	ein	.	.	8BL	ein	.	.
.	.	16eLL	ein	16cL	.	8E	ein
.	.	16dJJ	.	16BJJ	.	.	.
4a	Sch√∂-	(8c	Sch√∂-	8AL	Sch√∂-	(8F	Sch√∂-
.	.	4f)	.	8cJ	.	4A)	.
4b	-pfer	.	.	8dL	-pfer	.	.
.	.	[8e	-pfer	16cL	.	8G#	-pfer
.	.	.	.	16BJJ	.	.	.
=8	=8	=8	=8	=8	=8	=8	=8
4cc	und	16eLL]	.	8AL	und	(8A	und
.	.	16f#JJ	.	.	.	.	.
.	.	4g	und	16GL	.	4E)	.
.	.	.	.	16AJJ	.	.	.
4b	Re-	.	.	8BL	Re-	.	.
.	.	8g	Re-	16cL	.	8D	Re-
.	.	.	.	16dJJ	.	.	.
2a	-gie-	8gL	-gie-	8eL	-gie-	8CL	-gie-
.	.	16f#L	.	8c	.	8AAJ	.
.	.	16eJJ	.	.	.	.	.
.	.	4f#	.	8A	.	4D	.
.	.	.	.	8dJ	.	.	.
=9	=9	=9	=9	=9	=9	=9	=9
2g;	-rer!	2d;	-rer!	2B;	-rer!	2GG;	-rer!
4g	E-	4e	E-	4.c	E-	4C	E-
8fL	.	4d	.	.	.	8DL	.
8gJ	.	.	.	8B-	.	8EJ	.
=10	=10	=10	=10	=10	=10	=10	=10
4a	.	8cL	.	8AL	.	4F	.
.	.	8dJ	.	8BJ	.	.	.
4g	.	4e	.	8cL	.	4C	.
.	.	.	.	8B-J	.	.	.
4g	-le-	4e	-le-	(8A	-le-	4C#	-le-
.	.	.	.	4B-)	.	.	.
4f	-i-	4d	-i-	.	.	4D	-i-
.	.	.	.	8A	-i-	.	.
=11	=11	=11	=11	=11	=11	=11	=11
1e;	-son!	4c	-son!	4A	-son!	1E;	-son!
.	.	8BL	.	8G#L	.	.	.
.	.	8AJ	.	8F#J	.	.	.
.	.	2B;	.	2G#;	.	.	.
=12||	=12||	=12||	=12||	=12||	=12||	=12||	=12||
(2e	Chri-	4B	Chri-	4G	Chri-	8EL	Chri-
.	.	.	.	.	.	8DJ	.
.	.	8cL	.	8AL	.	2C	.
.	.	8BJ	.	8GJ	.	.	.
2d)	.	4A	.	4F#	.	.	.
.	.	8BL	.	[4G	.	8BBL	.
.	.	8cJ	.	.	.	8AAJ	.
=13	=13	=13	=13	=13	=13	=13	=13
2g	-ste,	8dL	.	8GL]	.	4BB	.
.	.	8fJ	.	8dJ	.	.	.
.	.	8eL	-ste,	8cL	-ste,	2E	-ste,
.	.	8dJ	.	8BJ	.	.	.
(4a	al-	8cL	al-	4.A	al-	.	.
.	.	16dL	.	.	.	.	.
.	.	16eJJ	.	.	.	.	.
4b)	.	4f	-ler	.	.	4D	al-
.	.	.	.	16GLL	.	.	.
.	.	.	.	16FJJ	.	.	.
=14	=14	=14	=14	=14	=14	=14	=14
4cc	-ler	16eLL	Welt	8G	.	4E	-ler
.	.	16fJJ	.	.	.	.	.
.	.	4g	.	16cLL	-ler	.	.
.	.	.	.	16B-JJ	.	.	.
4cc	Welt	.	.	4A	Welt	4F	Welt
.	.	[8f	Trost!	.	.	.	.
2cc;	Trost!	8fL]	.	2G;	Trost!	2C;	Trost!
.	.	16eL	.	.	.	.	.
.	.	16dJJ	.	.	.	.	.
.	.	4e;	.	.	.	.	.
=15	=15	=15	=15	=15	=15	=15	=15
4cc	uns	16eLL	uns	4A	uns	4AA	uns
.	.	16f#JJ	.	.	.	.	.
.	.	4g	.	.	.	.	.
4cc	S√ºn-	.	.	4A	S√ºn-	4D	S√ºn-
.	.	4f#	S√ºn-	.	.	.	.
4b	-der	.	.	8BL	-der	8GG	-der
.	.	16eLL	.	8GJ	.	4G	al-
.	.	16dJJ	.	.	.	.	.
4a	al-	16c#LL	-der	8eL	al-	.	.
.	.	16BJJ	.	.	.	.	.
.	.	8A	al-	16dL	.	[8F	-lein
.	.	.	.	16cJJ	.	.	.
=16	=16	=16	=16	=16	=16	=16	=16
4g	-lein	(8d	-lein	8BL	-lein	8FL]	.
.	.	4c)	.	16cL	.	8EJ	.
.	.	.	.	16B-JJ	.	.	.
4a	du	.	.	8AL	du	8FL	du
.	.	4a	du	16dL	.	8F#J	.
.	.	.	.	16cJJ	.	.	.
4b	hast	.	.	8BnL	hast	8GL	hast
.	.	8g	.	[8dJ	.	16BBL	.
.	.	.	.	.	.	16CJJ	.
4b	er-	16f#LL	hast	16dLL]	.	8DL	er-
.	.	16eJJ	.	16cJJ	.	.	.
.	.	8f#	er-	16BLL	er-	8D#J	.
.	.	.	.	16AJJ	.	.	.
=17	=17	=17	=17	=17	=17	=17	=17
2b;	-l√∂st;	2e;	-l√∂st;	2G;	-l√∂st;	2E;	-l√∂st;
4e	Je-	4.c	Je-	4G	Je-	8EL	Je-
.	.	.	.	.	.	8CJ	.
4d	.	.	.	4G	-su,	8GL	.
.	.	8B	.	.	.	8FJ	.
=18	=18	=18	=18	=18	=18	=18	=18
4g	.	8cL	.	4G	Got-	4.E	.
.	.	16dL	.	.	.	.	.
.	.	16eJJ	.	.	.	.	.
8aL	-su,	16fLL	-su,	8cL	.	.	.
.	.	16eJ	.	.	.	.	.
8bJ	.	8fJ	.	8dJ	.	8D	-su,
4cc	Got-	4e	Got-	4G	.	8CL	Got-
.	.	.	.	.	.	8BBJ	.
4cc	-tes	[4f	.	[4A	.	8AAL	-tes
.	.	.	.	.	.	8BBJ	.
=19	=19	=19	=19	=19	=19	=19	=19
2cc;	Sohn!	8f]	.	8A]	.	2C;	Sohn!
.	.	16eLL	-tes	16GLL	-tes	.	.
.	.	16dJJ	.	16FJJ	.	.	.
.	.	4e;	Sohn!	4G;	Sohn!	.	.
4cc	Un-	8e	Un-	8c	Un-	8AAL	Un-
.	.	16aLL	-ser	8d	-ser	8BBJ	.
.	.	16g#JJ	.	.	.	.	.
4cc	-ser	[4a	Mitt-	[4e	Mitt-	8CL	-ser
.	.	.	.	.	.	8DJ	.
=20	=20	=20	=20	=20	=20	=20	=20
(4b	Mitt-	8a]	.	8eL]	.	8EL	Mitt-
.	.	4g	.	8dJ	.	8BB	.
4a)	.	.	.	8eL	.	8C	.
.	.	8f#	.	16dL	.	8DJ	.
.	.	.	.	16cJJ	.	.	.
4g;	-ler	4d;	-ler	4B;	-ler	4GG;	-ler
4a	bist	8fnL	bist	[4d	bist	8DL	bist
.	.	8gJ	.	.	.	8EJ	.
=21	=21	=21	=21	=21	=21	=21	=21
4a	in	8a	in	8dL]	.	8FL	in
.	.	16gLL	dem	8c#J	.	8AAJ	.
.	.	16fJJ	.	.	.	.	.
4g	dem	8f	h√∂ch-	8d	in	8BBL	dem
.	.	4e	.	8A	dem	8C#J	.
4f	h√∂ch-	.	.	(4A	h√∂ch-	8DL	h√∂ch-
.	.	4d	.	.	.	8FFJ	.
4e	-sten	.	.	8B-)	.	8GGL	-sten
.	.	8c#	-sten	16ALL	-sten	8AAJ	.
.	.	.	.	16GJJ	.	.	.
=22	=22	=22	=22	=22	=22	=22	=22
2d;	Thron,	2A;	Thron,	2F;	Thron,	2DD;	Thron,
4d	zu	4A	zu	8FL	zu	8DL	zu
.	.	.	.	8GJ	.	8EJ	.
4a	dir	16dLL	dir	8AL	dir	8FL	dir
.	.	16eJ	.	.	.	.	.
.	.	8fJ	.	8dJ	.	8DJ	.
=23	=23	=23	=23	=23	=23	=23	=23
4a	schrei-	4.f	schrei-	8dL	schrei-	8BB-	schrei-
.	.	.	.	8BJ	.	8BBn	-en
4g	-en	.	.	8GL	-en	[4C	wir
.	.	[8e	.	16cL	.	.	.
.	.	.	.	16BJJ	.	.	.
4a	wir	16eLL]	.	4.A	wir	8CL]	.
.	.	16dJJ	.	.	.	.	.
.	.	16eLL	-en	.	.	8C#J	.
.	.	16gJJ	.	.	.	.	.
4b	aus	16fLL	wir	.	.	8DL	aus
.	.	16eJJ	.	.	.	.	.
.	.	16f#LL	aus	16GLL	aus	8D#J	.
.	.	16aJJ	.	16F#JJ	.	.	.
=24	=24	=24	=24	=24	=24	=24	=24
4cc	Her-	8gL	Her-	8EL	Her-	8EL	Her-
.	.	8dJ	.	8AJ	.	8F#	.
4b	-zens	8d	-zens	8B	-zens	8G	.
.	.	4g	.	4e	.	8EJ	.
2a	Be-	.	.	.	.	8CL	-zens
.	.	16f#LL	.	8c	.	8AAJ	.
.	.	16eJJ	.	.	.	.	.
.	.	4f#	Be-	8AL	Be-	4D	Be-
.	.	.	.	16dL	.	.	.
.	.	.	.	16cJJ	.	.	.
=25	=25	=25	=25	=25	=25	=25	=25
2g;	-gier!	2d;	-gier!	2B;	-gier!	2GG;	-gier!
4g	E-	4e	E-	4.c	E-	8CL	E-
.	.	.	.	.	.	8BB-	.
8fL	.	8fL	.	.	.	8AA	.
8gJ	.	8eJ	.	8B-	.	8GGJ	.
=26	=26	=26	=26	=26	=26	=26	=26
4a	.	4.f	.	16cLL	.	8FFL	.
.	.	.	.	16B-J	.	.	.
.	.	.	.	8cJ	.	8AA	.
4g	.	.	.	8dL	.	8BB-	.
.	.	16eLL	.	8GJ	.	8BBnJ	.
.	.	16dJJ	.	.	.	.	.
4g	-le-	4.e	-le-	8cL	-le-	8CL	-le-
.	.	.	.	8B-J	.	8C#J	.
4f	-i-	.	.	8AL	.	[4D	.
.	.	16dLL	.	16BnL	.	.	.
.	.	16cJJ	.	16AJJ	.	.	.
=27	=27	=27	=27	=27	=27	=27	=27
1e;	-son!	8BL	.	4G#	.	8DL]	.
.	.	8dJ	.	.	.	16CL	.
.	.	.	.	.	.	16BBJJ	.
.	.	2c	-i-	2A	-i-	8CL	-i-
.	.	.	.	.	.	8DJ	.
.	.	.	.	.	.	2E;	-son!
.	.	4B;	-son!	4G#;	-son!	.	.
=28||	=28||	=28||	=28||	=28||	=28||	=28||	=28||
2b	Ky-	2g	.	2e	.	(4EE	.
.	.	.	.	.	.	2E)	.
2cc	-ri-	2g	.	2e	.	.	.
.	.	.	.	.	.	8DL	.
.	.	.	.	.	.	8CJ	.
=29	=29	=29	=29	=29	=29	=29	=29
2dd;	-e!	2g;	.	2B;	.	2G;	.
4r	.	4r	.	4r	.	4r	.
4b	Gott	4g	.	4d	.	8GGL	.
.	.	.	.	.	.	8AAJ	.
=30	=30	=30	=30	=30	=30	=30	=30
4dd	hei-	4.g	hei-	4d	hei-	4BB	.
4cc	.	.	.	8eL	.	8EEL	.
.	.	4a	.	8dJ	.	8FF#J	.
4b	-li-	.	.	4d	-li-	8GGL	.
.	.	4g	-li-	.	.	8BBJ	.
4a	-ger	.	.	8eL	-ger	8CL	.
.	.	8f#	-ger	16dL	.	8DJ	.
.	.	.	.	16cJJ	.	.	.
=31	=31	=31	=31	=31	=31	=31	=31
2g;	Geist!	2d;	.	2B;	.	2GG;	.
4b	Tr√∂st',	4g	.	4e	.	8EEL	.
.	.	.	.	.	.	8EJ	.
4cc	st√§rk'	[4a	st√§rk'	4e	st√§rk'	8DL	.
.	.	.	.	.	.	8CJ	.
=32	=32	=32	=32	=32	=32	=32	=32
4dd	uns	8a]	.	4.d	uns	(8BB	.
.	.	16gLL	uns	.	.	4B)	.
.	.	16f#JJ	.	.	.	.	.
8bL	im	4g	im	.	.	.	.
8ccJ	.	.	.	8c	im	8A	im
4dd	Glau-	4.g	.	4.B	Glau-	8G	Glau-
.	.	.	.	.	.	8F#	-ben
4cc	-ben	.	.	.	.	[4E	al-
.	.	8f#	.	[8A	-ben	.	.
=33	=33	=33	=33	=33	=33	=33	=33
4b	al-	16BLL	.	8A]	.	8EL]	.
.	.	16cJ	.	.	.	.	.
.	.	8dJ	.	4G	al-	8BBJ	.
4a	-ler-	8eL	.	.	.	8CL	-ler-
.	.	16dL	.	8F#	-ler-	8DJ	.
.	.	16cJJ	.	.	.	.	.
4g;	-meist,	4B;	.	4G;	-meist,	4GG;	-meist,
4a	dass	4d	.	8FnL	dass	8DL	dass
.	.	.	.	8GJ	.	8EJ	.
=34	=34	=34	=34	=34	=34	=34	=34
4a	wir	8dL	.	8A	wir	8F	wir
.	.	8e-J	.	4c	.	8F#	am
4g	am	8dL	.	.	.	[4G	letz-
.	.	8c#J	.	8B-	am	.	.
4f	letz-	4.d	.	8B-L	letz-	8GL]	.
.	.	.	.	8BnJ	.	8G#J	.
4e	-ten	.	.	8EL	-ten	8AL	-ten
.	.	8c#	.	16AL	.	8AAJ	.
.	.	.	.	16GJJ	.	.	.
=35	=35	=35	=35	=35	=35	=35	=35
2d;	End'	2A;	.	2F#;	End'	2D;	End'
4d	fr√∂h-	4d	.	4B	.	(8GG	.
.	.	.	.	.	.	4G)	.
4a	-lich	4e	.	4c#	.	.	.
.	.	.	.	.	.	16F#LL	.
.	.	.	.	.	.	16EJJ	.
=36	=36	=36	=36	=36	=36	=36	=36
4a	ab-	8A	ab-	4.d	ab-	8F#L	ab-
.	.	(4f#	-schei-	.	.	8BJ	.
4g	-schei-	.	.	.	.	4.E	-schei-
.	.	8e)	.	16cLL	-schei-	.	.
.	.	.	.	16BJJ	.	.	.
4a	-den	4.f#	-den	8c	.	.	.
.	.	.	.	4F#	-den	16D#LL	.
.	.	.	.	.	.	16C#JJ	.
4b	aus	.	.	.	.	8D#	-den
.	.	16eLL	aus	16GLL	aus	8BB	aus
.	.	16d#JJ	.	16AJJ	.	.	.
=37	=37	=37	=37	=37	=37	=37	=37
4cc	die-	8e	die-	8G	die-	8EL	die-
.	.	4d	.	4A	.	8F#	.
4b	-sem	.	.	.	.	8G	.
.	.	4g	-sem	8G	-sem	8EJ	.
2a	E-	.	.	16eLL	E-	8CL	-sem
.	.	.	.	16dJJ	.	.	.
.	.	16f#LL	E-	4c	.	8AAJ	.
.	.	16eJJ	.	.	.	.	.
.	.	4f#	.	.	.	4D	E-
.	.	.	.	16BLL	.	.	.
.	.	.	.	16AJJ	.	.	.
=38	=38	=38	=38	=38	=38	=38	=38
2g;	-lend!	2d;	-lend!	2B;	-lend!	2GG;	-lend!
4g	E-	8dL	E-	8BL	E-	8GL	E-
.	.	8e	.	8B-	.	8C#J	.
8fL	.	8d	.	8A	.	[4D	.
8gJ	.	8eJ	.	8GJ	.	.	.
=39	=39	=39	=39	=39	=39	=39	=39
4a	.	8fL	.	4.F	.	8DL]	.
.	.	8e	.	.	.	8C	.
4g	.	8d	.	.	.	8BB	.
.	.	8gJ	.	16ELL	.	8BB-J	.
.	.	.	.	16DJJ	.	.	.
4g	-le-	8c#L	-le-	8EL	-le-	4.AA	-le-
.	.	8AJ	.	16FL	.	.	.
.	.	.	.	16GJJ	.	.	.
4f	-i-	4d	.	8AL	.	.	.
.	.	.	.	[8BJ	.	8GG#	.
=40	=40	=40	=40	=40	=40	=40	=40
1e;	-son!	4c#	.	8BL]	.	8AAL	.
.	.	.	.	16AL	.	8BBJ	.
.	.	.	.	16G#JJ	.	.	.
.	.	4cn	-i-	4.A	.	8CL	-i-
.	.	.	.	.	.	8DJ	.
.	.	2B;	-son!	.	.	2E;	-son!
.	.	.	.	16G#LL	-i-	.	.
.	.	.	.	16F#JJ	.	.	.
.	.	.	.	4G#;	-son!	.	.
==|!	==|!	==|!	==|!	==|!	==|!	==|!	==|!
*-	*-	*-	*-	*-	*-	*-	*-
!!!RWG: Key is interpreted using the Humdrum key tool.
!!!END: 1994/07/13
!!!EMD: Converted from MuseData to Humdrum Dec 19, 2000, by Andreas Kornstaedt using muse2kern.
!!!EED: Craig Stuart Sapp
!!!EEV: 2024/03/31
!!!ONB: Some non-unicode characters
